X:420
T: Girl with the Yellow hair
T: Cail\'in na Gruaige Bu\'i
S: B.Breathnach: "Ceol Rince na hEireann" II/94
Z: B.Black
L: 1/8
M: 9/8
R: slipjig
K: G
E|D2G G2A BAG|B2d d2B c2d|eee edB d2B|ABc BAG AGE|
D2G G2A BAG|B2d d2B c2d|eee edB d2B|ABc B2A G2 :|
A|: ggg g2e d2B|AAA A2B c2d|eee edB d2B|1 ABc BAG AGE :|2\
ABc B2A G2||
B|: ggg g2e d2B|A2a a2b age|g2g g2e d2B|1 ABc BAG AGE :|2\
ABc BAG AGE ||


